X: 29563
T: Noisy Curlew, The
R: reel
M: 4/4
K: Dmajor
"D" DF (3FFF "G" DG (3GGG|"D" DF (3FFF "A" E2 FE|"D" DF (3FFF ABde|"D" fdAG FD (3DDD|
"D" DF (3FFF "G" DG (3GGG|"D" DF (3FFF "A" E2 FE|"D" DF (3FFF ABde|"D" fdAG FD (3DDD||
"D" fgaf "G" g2 ag|"D" fgaf "G" gfeg|"D" fgaf "G" g2 ag|"D" fdAG FD ~D2|
"D" fgaf "G" g2 ag|"D" fgaf "G" gfeg|"D" fdAF "G" G2 ag|"D" fdAG FD ~D2||

